X: 1
T: Hora
R: hora
O: Turkey and Israel
B:
D:
Z: 1998 by John Chambers <jc:trillian.mit.edu>
N:
M: 2/4
L: 1/8
K: Bm
|: "Bm"[fd][fd] [ec][dB]- | [d3B3] [ec] | [f2d2] [ge][fd]- | [fd][ec] [d2B2] \
|  "Em"[ge][ge] [fd][ec]- | [e3c3] [fd] | [g2e2] [ge][ge]- | [ge][af][ge][ec] |
|  "Bm"[fd][fd] [ec][dB]- | [d3B3] [ec] | [f2d2] [f2d2] | "F7"[f2c2] [e2c2] \
|  "Bm"[ec][fd]- [f2d2]- | [f4d4]- | "F7"[f4c4]- | [f4c4] :|
|: "Bm"z[d2F2] [cE] | [d2F2] [B2D2] | [d2F2] [cE][dF]- | [d4F4] \
|  z[dF][dF][cE] | [d2F2] [cE][dF] | "Em"[e2G2] [dF][eG]- | [eG][dF] [dF][cE] |
| "F7"z[cE][cE][BD] | [c2E2] [^A2C2] | [c2E2] [BD][cE]- | [c4E4] \
| z[cE][cE][BD] | [c2E2] [BD][cE] | "Bm"[d2F2] [cE][dF]- | [dF][cE] [cE][BD] :| "(vbmp)"[B4D4]- | [B4D4] |]

%%sep 1 1 500

